assets/icons/qvision/add_photo_alternate.svg

<svg xmlns="http://www.w3.org/2000/svg" height="24" viewBox="0 0 24 24" width="24"><path d="M0 0h24v24H0z" fill="none"/><path d="M19 7v2.99s-1.99.01-2 0V7h-3s.01-1.99 0-2h3V2h2v3h3v2h-3zm-3 4V8h-3V5H5c-1.1 0-2 .9-2 2v12c0 1.1.9 2 2 2h12c1.1 0 2-.9 2-2v-8h-3zM5 19l3-4 2 3 3-4 4 5H5z"/></svg>

<svg width="24" height="24" viewBox="0 0 24 24" fill="none" xmlns="http://www.w3.org/2000/svg">
<g clip-path="url(#clip0_147_3181)">
<path d="M19 7V9.99C19 9.99 17.01 10 17 9.99V7H14C14 7 14.01 5.01 14 5H17V2H19V5H22V7H19ZM16 11V8H13V5H5C3.9 5 3 5.9 3 7V19C3 20.1 3.9 21 5 21H17C18.1 21 19 20.1 19 19V11H16ZM5 19L8 15L10 18L13 14L17 19H5Z" fill="#323232"/>
</g>
<defs>
<clipPath id="clip0_147_3181">
<rect width="24" height="24" fill="white"/>
</clipPath>
</defs>
</svg>
